icons/flutter-line.svg

<svg viewBox="0 0 24 24" fill="currentColor" xmlns="http://www.w3.org/2000/svg">
    <path d="M14.5979 10.6843H17.4264L11.7688 16.3419L17.4264 21.998H14.5979L8.94108 16.3412L14.5979 10.6843ZM14.4044 2.00439H17.2328L5.9191 13.3181L4.50488 11.9039L14.4044 2.00439Z"/>
</svg>

<svg xmlns="http://www.w3.org/2000/svg" viewBox="0 0 24 24">
    <g>
        <path fill="none" d="M0 0h24v24H0z"/>
        <path d="M14.597 10.684h2.828l-5.657 5.658 5.657 5.656h-2.828L8.94 16.34l5.657-5.657zm-.194-8.68h2.829L5.918 13.318l-1.414-1.414 9.9-9.9z"/>
    </g>
</svg>
